src/lib/packages/icons/src/assets/line/eye.svg

<svg width="24" height="24" viewBox="0 0 24 24" fill="none" xmlns="http://www.w3.org/2000/svg">
<path d="M21.2352 10.1379C19.9222 7.93894 16.9751 4.25 12.0001 4.25C7.02511 4.25 4.07801 7.93894 2.76501 10.1379C2.07801 11.2859 2.07801 12.7131 2.76501 13.8621C4.07801 16.0611 7.02511 19.75 12.0001 19.75C16.9751 19.75 19.9222 16.0611 21.2352 13.8621C21.9222 12.7131 21.9222 11.2869 21.2352 10.1379ZM19.9481 13.092C18.7981 15.018 16.2351 18.25 12.0001 18.25C7.76511 18.25 5.20212 15.019 4.05212 13.092C3.65012 12.418 3.65012 11.581 4.05212 10.907C5.20212 8.98098 7.76511 5.74902 12.0001 5.74902C16.2351 5.74902 18.7981 8.97998 19.9481 10.907C20.3511 11.582 20.3511 12.418 19.9481 13.092ZM12.0001 7.75C9.65611 7.75 7.75011 9.657 7.75011 12C7.75011 14.343 9.65611 16.25 12.0001 16.25C14.3441 16.25 16.2501 14.343 16.2501 12C16.2501 9.657 14.3441 7.75 12.0001 7.75ZM12.0001 14.75C10.4831 14.75 9.25011 13.517 9.25011 12C9.25011 10.483 10.4831 9.25 12.0001 9.25C13.5171 9.25 14.7501 10.483 14.7501 12C14.7501 13.517 13.5171 14.75 12.0001 14.75Z" fill="currentColor"/>
</svg>

<svg xmlns="http://www.w3.org/2000/svg" width="24" height="24" fill="none"><path fill="currentColor" d="M21.235 10.138C19.922 7.938 16.975 4.25 12 4.25s-7.922 3.689-9.235 5.888a3.622 3.622 0 0 0 0 3.724c1.313 2.2 4.26 5.888 9.235 5.888s7.922-3.689 9.235-5.888a3.622 3.622 0 0 0 0-3.724Zm-1.287 2.954c-1.15 1.926-3.713 5.158-7.948 5.158s-6.798-3.231-7.948-5.158a2.13 2.13 0 0 1 0-2.185C5.202 8.981 7.765 5.749 12 5.749s6.798 3.231 7.948 5.158a2.126 2.126 0 0 1 0 2.185ZM12 7.75A4.255 4.255 0 0 0 7.75 12 4.255 4.255 0 0 0 12 16.25 4.255 4.255 0 0 0 16.25 12 4.255 4.255 0 0 0 12 7.75Zm0 7A2.752 2.752 0 0 1 9.25 12 2.752 2.752 0 0 1 12 9.25 2.752 2.752 0 0 1 14.75 12 2.752 2.752 0 0 1 12 14.75Z"/></svg>
